assets/images/icon-triggers.svg

<svg xmlns="http://www.w3.org/2000/svg" width="48" height="48"><g fill="none" fill-rule="evenodd"><ellipse cx="24" cy="24.5" fill="#F52D2D" rx="18" ry="18.5"/><path fill="#FCBFBF" d="M42 0c3.308 0 6 2.692 6 6v36c0 3.308-2.692 6-6 6H6c-3.308 0-6-2.692-6-6V6c0-3.308 2.692-6 6-6h36zM24 40c8.822 0 16-7.178 16-16S32.822 8 24 8 8 15.178 8 24s7.178 16 16 16zm6-16a1 1 0 0 1 0 2h-8V14a1 1 0 0 1 2 0v10h6z"/></g></svg>

<svg xmlns="http://www.w3.org/2000/svg" width="48" height="48" viewBox="0 0 48 48">
  <g fill="none" fill-rule="evenodd">
    <ellipse cx="24" cy="24.5" fill="#F52D2D" rx="18" ry="18.5"/>
    <path fill="#FCBFBF" d="M42,0 C45.308,0 48,2.692 48,6 L48,42 C48,45.308 45.308,48 42,48 L6,48 C2.692,48 0,45.308 0,42 L0,6 C0,2.692 2.692,0 6,0 L42,0 Z M24,40 C32.822,40 40,32.822 40,24 C40,15.178 32.822,8 24,8 C15.178,8 8,15.178 8,24 C8,32.822 15.178,40 24,40 Z M30,24 C30.552,24 31,24.448 31,25 C31,25.552 30.552,26 30,26 L22,26 L22,14 C22,13.448 22.448,13 23,13 C23.552,13 24,13.448 24,14 L24,24 L30,24 Z"/>
  </g>
</svg>
